assets/img/braze_icons/wallet-05.svg

<svg fill="none" height="24" viewBox="0 0 24 24" width="24" xmlns="http://www.w3.org/2000/svg"><g fill="#801ed7"><path clip-rule="evenodd" d="m5.67016 5.50183c-.17229.00241-.33375.008-.47816.02087-.27157.02421-.60416.08169-.91971.27722-.424.26272-.73452.67439-.87065 1.15424-.10131.35712-.06522.69271-.01389.96049.05636.29398.08453.44098.17024.58827.11179.19213.32338.36702.53313.44064.16079.05644.34256.05644.70609.05644h14.40559c.3635 0 .5453 0 .706-.05644.2098-.07362.4214-.24851.5332-.44064.0857-.1473.1139-.29429.1702-.58827.0513-.26778.0874-.60337-.0139-.96049-.1361-.47985-.4466-.89152-.8706-1.15424-.3156-.19553-.6482-.25301-.9197-.27722-.1444-.01287-.3059-.01845-.4782-.02087.1118-.31921.1702-.65779.1702-1.00183 0-.78989-.308-1.55098-.8619-2.11492-.5544-.56455-1.3103-.88508-2.1024-.88508-1.7947 0-2.9082 1.21846-3.5357 2.27224-.6275-1.05378-1.741-2.27224-3.53571-2.27224-.79206 0-1.54795.32053-2.10241.88508-.55387.56394-.86188 1.32503-.86188 2.11492 0 .34404.05843.68262.17016 1.00183zm2.11861-1.71534c.18229-.18559.42565-.28649.67552-.28649.80968 0 1.43339.57581 1.91931 1.47527.095.17589.1783.35338.2507.52473h-2.17001c-.24987 0-.49323-.1009-.67552-.28649-.18288-.18621-.28877-.44254-.28877-.71351s.10589-.5273.28877-.71351zm5.57703 1.71351c.0723-.17135.1556-.34884.2507-.52473.4858-.89946 1.1095-1.47527 1.9192-1.47527.2499 0 .4933.1009.6755.28649.1829.18621.2888.44254.2888.71351s-.1059.5273-.2888.71351c-.1822.18559-.4256.28649-.6755.28649z" fill-rule="evenodd"/><path d="m21.2323 11.7768c-.1699-.2833-.2549-.4249-.3719-.5278-.1036-.091-.2248-.1597-.3561-.2016-.1484-.0474-.3136-.0474-.644-.0474h-15.72059c-.33034 0-.49551 0-.64392.0474-.13134.0419-.25258.1106-.35612.2016-.117.1029-.20198.2445-.37194.5278l-.54763.9127c-.36151.6018-.63456 1.0563-.77995 1.5586-.12818.4428-.17885.9044-.14978 1.3644.03297.5219.20092 1.0248.42327 1.6907l.2999.8999c.3373 1.0145.59117 1.778 1.0803 2.3629.42959.5137.98126.9114 1.60444 1.1564.70957.2791 1.51421.2785 2.58331.2777h9.43691c1.069.0008 1.8737.0014 2.5833-.2776.6232-.2451 1.1748-.6428 1.6044-1.1565.4891-.5849.743-1.3484 1.0803-2.3629l.2999-.8999c.2224-.6659.3903-1.1688.4233-1.6907.0291-.46-.0216-.9216-.1498-1.3644-.1454-.5022-.4184-.9568-.7799-1.5585z"/></g></svg>

<svg width="24" height="24" viewBox="0 0 24 24" fill="none" xmlns="http://www.w3.org/2000/svg">
<path fill-rule="evenodd" clip-rule="evenodd" d="M5.67016 5.50183C5.49787 5.50424 5.33641 5.50983 5.192 5.5227C4.92043 5.54691 4.58784 5.60439 4.27229 5.79992C3.84829 6.06264 3.53777 6.47431 3.40164 6.95416C3.30033 7.31128 3.33642 7.64687 3.38775 7.91465C3.44411 8.20863 3.47228 8.35563 3.55799 8.50292C3.66978 8.69505 3.88137 8.86994 4.09112 8.94356C4.25191 9 4.43368 9 4.79721 9H19.2028C19.5663 9 19.7481 9 19.9088 8.94356C20.1186 8.86994 20.3302 8.69505 20.442 8.50292C20.5277 8.35562 20.5559 8.20863 20.6122 7.91465C20.6635 7.64687 20.6996 7.31128 20.5983 6.95416C20.4622 6.47431 20.1517 6.06264 19.7277 5.79992C19.4121 5.60439 19.0795 5.54691 18.808 5.5227C18.6636 5.50983 18.5021 5.50425 18.3298 5.50183C18.4416 5.18262 18.5 4.84404 18.5 4.5C18.5 3.71011 18.192 2.94902 17.6381 2.38508C17.0837 1.82053 16.3278 1.5 15.5357 1.5C13.741 1.5 12.6275 2.71846 12 3.77224C11.3725 2.71846 10.259 1.5 8.46429 1.5C7.67223 1.5 6.91634 1.82053 6.36188 2.38508C5.80801 2.94902 5.5 3.71011 5.5 4.5C5.5 4.84404 5.55843 5.18262 5.67016 5.50183ZM7.78877 3.78649C7.97106 3.6009 8.21442 3.5 8.46429 3.5C9.27397 3.5 9.89768 4.07581 10.3836 4.97527C10.4786 5.15116 10.5619 5.32865 10.6343 5.5H8.46429C8.21442 5.5 7.97106 5.3991 7.78877 5.21351C7.60589 5.0273 7.5 4.77097 7.5 4.5C7.5 4.22903 7.60589 3.9727 7.78877 3.78649ZM13.3658 5.5C13.4381 5.32865 13.5214 5.15116 13.6165 4.97527C14.1023 4.07581 14.726 3.5 15.5357 3.5C15.7856 3.5 16.029 3.6009 16.2112 3.78649C16.3941 3.9727 16.5 4.22903 16.5 4.5C16.5 4.77097 16.3941 5.0273 16.2112 5.21351C16.029 5.3991 15.7856 5.5 15.5357 5.5H13.3658Z" fill="#801ED7"/>
<path d="M21.2323 11.7768C21.0624 11.4935 20.9774 11.3519 20.8604 11.249C20.7568 11.158 20.6356 11.0893 20.5043 11.0474C20.3559 11 20.1907 11 19.8603 11H4.13971C3.80937 11 3.6442 11 3.49579 11.0474C3.36445 11.0893 3.24321 11.158 3.13967 11.249C3.02267 11.3519 2.93769 11.4935 2.76773 11.7768L2.2201 12.6895C1.85859 13.2913 1.58554 13.7458 1.44015 14.2481C1.31197 14.6909 1.2613 15.1525 1.29037 15.6125C1.32334 16.1344 1.49129 16.6373 1.71364 17.3032L2.01354 18.2031C2.35084 19.2176 2.60471 19.9811 3.09384 20.566C3.52343 21.0797 4.0751 21.4774 4.69828 21.7224C5.40785 22.0015 6.21249 22.0009 7.28159 22.0001L16.7185 22.0001C17.7875 22.0009 18.5922 22.0015 19.3018 21.7225C19.925 21.4774 20.4766 21.0797 20.9062 20.566C21.3953 19.9811 21.6492 19.2176 21.9865 18.2031L22.2864 17.3032C22.5088 16.6373 22.6767 16.1344 22.7097 15.6125C22.7388 15.1525 22.6881 14.6909 22.5599 14.2481C22.4145 13.7459 22.1415 13.2913 21.78 12.6896L21.2323 11.7768Z" fill="#801ED7"/>
</svg>
